X:180 
T:Riley's Reel
S:Donnelly < W.Jones
F:file ID: cre.4/180rileys
B:CRE4.182 (Ril Ui Raghallaigh)
L:1/8
Q:180
M:4/4
R:reel
K:Em
A|BEED GABd|dBAG FADA|BEED GBeg|fedf edBA|
BEED GABd|dBAG FADA|BEED GBeg|fedf e3 ||
f|eBef gbeg|fdad bdad|eBef gbeg|fedf e2 ef|
eBef gbeg|fdad bdad|efga bgaf|gfed Bged ||\
"last time"e8|]

%%%

